X:61
T:Maggie Lauder
C:arr. Carlo Minasi
M:C
L:1/8
B:Chappell's One Hundred Scotch Melodies
B:Arranged for the Concertina by Carlo Minasi
Q:"Allegro  "1/4=140
Z:Peter Dunk 2012
K:C
!mf![c2G2E2] [cGE]c ([cGE]>ec)e|\
([dF]>e[d^F])c ([B2G2]dz/f/)|\
([ec]c)([cE]G) ([cE]>d[cE])e|\
([ge]>[af][ge][fd]) ([e2c2]g)z/e/|
L([gcA]>gf)a L([ec]>fe)g|\
([dF]>e[d^F]c) ([B2G2]Hd) (A/B/)|\
.c.G.A.E .F.E.D z/f/|\
([ecG]>g)([dBF]>e) [c2-E2-][cE]z||

